X: 1
T: Come To Dinner
M: 6/8
L: 1/8
R: jig
K: Ador
B|: cAA A3 | EAB cBA | BGG G3 | BGB dcB |
cAA A3 | EAB cBA | dBG EAB | cAA A3  :|
|: a3 efg | age edc | dBG G2A | B2c deg |
a3 efg | age edc | dBG EAB | cAA A3  :|
